X: 1
T: Lancer's
M: 12/8
L: 1/8
R: slide
K: Dmaj
DFA B2 B cBc d3|ABA GAG FGF E3|
DFA BGB cBc d2 f|edB BAF AFE D2 A,|
DFA B2 B cBc d3|ABA GAG FGF E3|
DFA BGB cBc d2 f|edB BAF AFE D3||
ABA ~f3 efe d3|ABA ~G3 FGF E3|
ABA ~f3 efe d3|AFA BGB cBc [d3D3]|
ABA ~f3 efe d3|ABA f2 f g2 f edB|
AFA ~f3 efe d2 f|edB BAF AFE D2 A,||
